packages/assets/static/images/icons/medium-logo.svg

<svg width="24" height="24" viewBox="0 0 24 24" xmlns="http://www.w3.org/2000/svg">
<path d="M6.75 6C5.56332 6 4.40328 6.35189 3.41658 7.01118C2.42989 7.67047 1.66085 8.60754 1.20673 9.7039C0.7526 10.8003 0.63378 12.0067 0.865291 13.1705C1.0968 14.3344 1.66825 15.4035 2.50736 16.2426C3.34648 17.0818 4.41558 17.6532 5.57946 17.8847C6.74335 18.1162 7.94975 17.9974 9.0461 17.5433C10.1425 17.0892 11.0795 16.3201 11.7388 15.3334C12.3981 14.3467 12.75 13.1867 12.75 12C12.7483 10.4092 12.1156 8.88412 10.9907 7.75928C9.86588 6.63444 8.34077 6.00174 6.75 6ZM6.75 16.5C5.85999 16.5 4.98996 16.2361 4.24994 15.7416C3.50992 15.2471 2.93314 14.5443 2.59254 13.7221C2.25195 12.8998 2.16284 11.995 2.33647 11.1221C2.5101 10.2492 2.93869 9.44736 3.56802 8.81802C4.19736 8.18868 4.99918 7.7601 5.8721 7.58647C6.74501 7.41283 7.64981 7.50195 8.47208 7.84254C9.29435 8.18314 9.99715 8.75991 10.4916 9.49993C10.9861 10.24 11.25 11.11 11.25 12C11.2488 13.1931 10.7743 14.337 9.93061 15.1806C9.08697 16.0243 7.9431 16.4988 6.75 16.5ZM17.25 6C16.7175 6 15.7125 6.25875 14.97 7.99219C14.5059 9.075 14.25 10.5 14.25 12C14.25 13.5 14.5059 14.925 14.97 16.0078C15.7125 17.7413 16.7175 18 17.25 18C17.7825 18 18.7875 17.7413 19.53 16.0078C19.9941 14.925 20.25 13.5 20.25 12C20.25 10.5 19.9941 9.075 19.53 7.99219C18.7875 6.25875 17.7825 6 17.25 6ZM17.25 16.5C16.7213 16.5 15.75 14.7919 15.75 12C15.75 9.20812 16.7213 7.5 17.25 7.5C17.7788 7.5 18.75 9.20812 18.75 12C18.75 14.7919 17.7788 16.5 17.25 16.5ZM23.25 6.75V17.25C23.25 17.4489 23.171 17.6397 23.0303 17.7803C22.8897 17.921 22.6989 18 22.5 18C22.3011 18 22.1103 17.921 21.9697 17.7803C21.829 17.6397 21.75 17.4489 21.75 17.25V6.75C21.75 6.55109 21.829 6.36032 21.9697 6.21967C22.1103 6.07902 22.3011 6 22.5 6C22.6989 6 22.8897 6.07902 23.0303 6.21967C23.171 6.36032 23.25 6.55109 23.25 6.75Z"/>
</svg>

<svg viewBox="0 0 24 24" xmlns="http://www.w3.org/2000/svg" aria-hidden="true" fill="currentColor"><path d="M6.75 6a6 6 0 1 0 6 6 6.006 6.006 0 0 0-6-6m0 10.5a4.5 4.5 0 1 1 0-9 4.5 4.5 0 0 1 0 9M17.25 6c-.532 0-1.537.259-2.28 1.992-.464 1.083-.72 2.508-.72 4.008s.256 2.925.72 4.008C15.712 17.74 16.718 18 17.25 18s1.538-.259 2.28-1.992c.464-1.083.72-2.508.72-4.008s-.256-2.925-.72-4.008C18.788 6.26 17.782 6 17.25 6m0 10.5c-.529 0-1.5-1.708-1.5-4.5s.971-4.5 1.5-4.5 1.5 1.708 1.5 4.5-.971 4.5-1.5 4.5m6-9.75v10.5a.75.75 0 1 1-1.5 0V6.75a.75.75 0 1 1 1.5 0"/></svg>
